Adwaita++-Light/panel/16/battery-low.svg

<svg height="16" width="16" xmlns="http://www.w3.org/2000/svg">
  <g fill="#444">
    <path d="m6 1v1h-3v12c0 .55.446 1 1 1h8c.554 0 1-.45 1-1v-12h-3v-1z" opacity=".3"/>
    <path d="m3 10v4c0 .55.446 1 1 1h8c.554 0 1-.45 1-1v-4z"/>
  </g>
</svg>

<svg xmlns="http://www.w3.org/2000/svg" width="16" height="16" version="1.1">
 <defs>
  <style id="current-color-scheme" type="text/css">
   .ColorScheme-Text { color:#444444; } .ColorScheme-Highlight { color:#4285f4; }
  </style>
 </defs>
 <path style="opacity:0.3;fill:currentColor" class="ColorScheme-Text" d="M 6,1 V 2 H 3 V 14 C 3,14.55 3.446,15 4,15 H 12 C 12.554,15 13,14.55 13,14 V 2 H 10 V 1 Z"/>
 <path style="fill:currentColor" class="ColorScheme-Text" d="M 3,10 V 14 C 3,14.55 3.446,15 4,15 H 12 C 12.554,15 13,14.55 13,14 V 10 Z"/>
</svg>
